Papirus/32x32/apps/pixel-piracy.svg

<svg xmlns="http://www.w3.org/2000/svg" width="32" height="32" version="1.1">
 <rect style="opacity:0.2" width="28" height="28" x="2" y="3" rx="2" ry="2"/>
 <rect style="fill:#81d4fa" width="28" height="28" x="2" y="2" rx="2" ry="2"/>
 <path style="fill:#248afd" d="m 2,18 v 10 c 0,0.06925 0.00296,0.137681 0.00977,0.205078 0.0068,0.0674 0.017973,0.134004 0.03125,0.199219 0.026555,0.13043 0.064766,0.255281 0.1152344,0.375 0.050469,0.119719 0.1118516,0.233476 0.1835938,0.339844 0.071742,0.106367 0.1537656,0.2065 0.2441406,0.296875 0.090375,0.09038 0.1905078,0.172398 0.296875,0.24414 0.1063672,0.07174 0.220125,0.133125 0.3398437,0.183594 0.1197188,0.05047 0.2445703,0.08868 0.375,0.115234 0.065215,0.01328 0.1318213,0.02445 0.1992188,0.03125 C 3.8623193,29.997038 3.93075,30 4,30 h 24 c 0.06925,0 0.137681,-0.003 0.205078,-0.0098 0.0674,-0.0068 0.134004,-0.01797 0.199219,-0.03125 0.13043,-0.02655 0.255281,-0.06477 0.375,-0.115234 0.119719,-0.05047 0.233476,-0.111852 0.339844,-0.183594 0.106367,-0.07174 0.2065,-0.153765 0.296875,-0.24414 0.09038,-0.09037 0.172398,-0.190508 0.24414,-0.296875 0.07174,-0.106368 0.133125,-0.220125 0.183594,-0.339844 0.05047,-0.119719 0.08868,-0.24457 0.115234,-0.375 0.01328,-0.06521 0.02445,-0.131821 0.03125,-0.199219 C 29.997038,28.137681 30,28.06925 30,28 V 18 Z"/>
 <path style="opacity:0.2" d="M 12,3 V 5 H 8 v 2 h 6 V 5 3 Z M 8,7 H 6 v 2 h 2 z m 0,2 v 2 h 2 V 9 Z m 0,2 H 6 v 8 h 2 z m 0,8 v 4 h 2 2 v -2 h -2 v -2 z m 0,4 H 6 v 2 h 2 z m 0,2 v 6 h 2 V 25 Z M 6,25 H 4 v 6 H 6 Z M 18,3 v 2 h 2 V 3 Z m 2,2 v 2 h 4 V 5 Z m 4,2 v 2 h 2 V 7 Z m 0,2 h -2 v 2 h 2 z m 0,2 v 8 h 2 v -8 z m 0,8 h -2 v 2 h -2 v 2 h 2 2 z m 0,4 v 2 h 2 v -2 z m 2,2 v 6 h 2 v -6 z m -2,0 h -2 v 6 h 2 z M 10,13 v 2 h 2 v -2 z m 2,2 v 2 h 2 v -2 z m 6,-2 v 2 h 2 v -2 z m 0,2 h -2 v 2 h 2 z m -4,4 v 2 h 4 v -2 z"/>
 <path style="fill:#5d5d5d" d="M 12,2 V 4 H 8 v 2 h 6 V 4 2 Z M 8,6 H 6 v 2 h 2 z m 0,2 v 2 h 2 V 8 Z m 0,2 H 6 v 8 h 2 z m 0,8 v 4 h 2 2 v -2 h -2 v -2 z m 0,4 H 6 v 2 h 2 z m 0,2 v 6 h 2 V 24 Z M 6,24 H 4 v 6 H 6 Z M 18,2 v 2 h 2 V 2 Z m 2,2 v 2 h 4 V 4 Z m 4,2 v 2 h 2 V 6 Z m 0,2 h -2 v 2 h 2 z m 0,2 v 8 h 2 v -8 z m 0,8 h -2 v 2 h -2 v 2 h 2 2 z m 0,4 v 2 h 2 v -2 z m 2,2 v 6 h 2 v -6 z m -2,0 h -2 v 6 h 2 z M 10,12 v 2 h 2 v -2 z m 2,2 v 2 h 2 v -2 z m 6,-2 v 2 h 2 v -2 z m 0,2 h -2 v 2 h 2 z m -4,4 v 2 h 4 v -2 z"/>
 <path style="fill:#ffffff" d="m 10,22 v 2 h 2 v 6 h 2 v -6 -2 z m 8,0 v 2 6 h 2 v -6 h 2 v -2 z"/>
 <path style="fill:#df574d" d="m 8,22 v 2 h 2 v -2 z m 2,2 v 6 h 2 V 24 Z M 8,24 H 6 v 6 h 2 z m 6,-2 v 2 h 2 v -2 z m 2,2 v 2 h 2 v -2 z m 6,-2 v 2 h 2 v -2 z m 2,2 v 6 h 2 v -6 z m -2,0 h -2 v 6 h 2 z"/>
 <path style="opacity:0.2" d="m 12,11 v 2 2 h 2 v 2 H 12 V 15 H 10 V 13 H 8 v 6 h 2 v 2 h 2 v 2 h 6 2 v -2 h 2 v -2 h 2 v -4 h -2 v -2 h -2 v 2 h -2 v 2 h -2 v -2 h 2 v -2 h 2 v -2 z m 2,8 h 4 v 2 h -4 z"/>
 <path style="fill:#ffecb3" d="m 12,10 v 2 2 h 2 v 2 H 12 V 14 H 10 V 12 H 8 v 6 h 2 v 2 h 2 v 2 h 6 2 v -2 h 2 v -2 h 2 v -4 h -2 v -2 h -2 v 2 h -2 v 2 h -2 v -2 h 2 v -2 h 2 v -2 z m 2,8 h 4 v 2 h -4 z"/>
 <path style="opacity:0.2" d="M 14,3 V 7 H 8 v 2 h 2 v 2 H 8 v 2 h 4 v -2 h 2 4 2 v 2 h 2 v 2 h 2 V 11 H 22 V 9 h 2 V 7 H 22 20 V 5 H 18 V 3 Z"/>
 <path style="fill:#fecd38" d="M 14,2 V 6 H 8 v 2 h 2 v 2 H 8 v 2 h 4 v -2 h 2 4 2 v 2 h 2 v 2 h 2 V 10 H 22 V 8 h 2 V 6 H 22 20 V 4 H 18 V 2 Z"/>
 <path style="fill:#f48fb1" d="m 16,22 v 2 h 2 v -2 z m 0,2 h -2 v 6 h 2 2 v -4 h -2 z"/>
 <path style="opacity:0.2;fill:#ffffff" d="M 4,2 C 2.892,2 2,2.892 2,4 V 5 C 2,3.892 2.892,3 4,3 h 24 c 1.108,0 2,0.892 2,2 V 4 C 30,2.892 29.108,2 28,2 Z"/>
</svg>

<svg xmlns="http://www.w3.org/2000/svg" width="32" height="32" version="1.1">
 <rect style="opacity:0.2" width="28" height="28" x="2" y="3" rx="2" ry="2"/>
 <rect style="fill:#81d4fa" width="28" height="28" x="2" y="2" rx="2" ry="2"/>
 <path style="fill:#248afd" d="M 2 18 L 2 28 C 2 29.108 2.892 30 4 30 L 28 30 C 29.108 30 30 29.108 30 28 L 30 18 L 2 18 z"/>
 <path style="opacity:0.2" d="M 12,3 V 5 H 8 V 7 H 14 V 3 Z M 8,7 H 6 V 9 H 8 Z M 8,9 V 11 H 10 V 9 Z M 8,11 H 6 V 19 H 8 Z M 8,19 V 23 H 12 V 21 H 10 V 19 Z M 8,23 H 6 V 25 H 8 Z M 8,25 V 30 H 10 V 25 Z M 6,25 H 4 V 30 H 6 Z M 18,3 V 5 H 20 V 3 Z M 20,5 V 7 H 24 V 5 Z M 24,7 V 9 H 26 V 7 Z M 24,9 H 22 V 11 H 24 Z M 24,11 V 19 H 26 V 11 Z M 24,19 H 22 V 21 H 20 V 23 H 24 Z M 24,23 V 25 H 26 V 23 Z M 26,25 V 30 H 28 V 25 Z M 24,25 H 22 V 30 H 24 Z M 10,13 V 15 H 12 V 13 Z M 12,15 V 17 H 14 V 15 Z M 18,13 V 15 H 20 V 13 Z M 18,15 H 16 V 17 H 18 Z M 14,19 V 21 H 18 V 19 Z"/>
 <path style="fill:#5d5d5d" d="M 12,2 V 4 H 8 V 6 H 14 V 2 Z M 8,6 H 6 V 8 H 8 Z M 8,8 V 10 H 10 V 8 Z M 8,10 H 6 V 18 H 8 Z M 8,18 V 22 H 12 V 20 H 10 V 18 Z M 8,22 H 6 V 24 H 8 Z M 8,24 V 30 H 10 V 24 Z M 6,24 H 4 V 30 H 6 Z M 18,2 V 4 H 20 V 2 Z M 20,4 V 6 H 24 V 4 Z M 24,6 V 8 H 26 V 6 Z M 24,8 H 22 V 10 H 24 Z M 24,10 V 18 H 26 V 10 Z M 24,18 H 22 V 20 H 20 V 22 H 24 Z M 24,22 V 24 H 26 V 22 Z M 26,24 V 30 H 28 V 24 Z M 24,24 H 22 V 30 H 24 Z M 10,12 V 14 H 12 V 12 Z M 12,14 V 16 H 14 V 14 Z M 18,12 V 14 H 20 V 12 Z M 18,14 H 16 V 16 H 18 Z M 14,18 V 20 H 18 V 18 Z"/>
 <path style="fill:#ffffff" d="m 10,22 v 2 h 2 v 6 h 2 v -6 -2 z m 8,0 v 2 6 h 2 v -6 h 2 v -2 z"/>
 <path style="fill:#df574d" d="m 8,22 v 2 h 2 v -2 z m 2,2 v 6 h 2 V 24 Z M 8,24 H 6 v 6 h 2 z m 6,-2 v 2 h 2 v -2 z m 2,2 v 2 h 2 v -2 z m 6,-2 v 2 h 2 v -2 z m 2,2 v 6 h 2 v -6 z m -2,0 h -2 v 6 h 2 z"/>
 <path style="opacity:0.2" d="m 12,11 v 2 2 h 2 v 2 H 12 V 15 H 10 V 13 H 8 v 6 h 2 v 2 h 2 v 2 h 6 2 v -2 h 2 v -2 h 2 v -4 h -2 v -2 h -2 v 2 h -2 v 2 h -2 v -2 h 2 v -2 h 2 v -2 z m 2,8 h 4 v 2 h -4 z"/>
 <path style="fill:#ffecb3" d="M 12,10 V 12 14 H 14 V 16 H 12 V 14 H 10 V 12 H 8 V 18 H 10 V 20 H 12 V 22 H 20 V 20 H 22 V 18 H 24 V 14 H 22 V 12 H 20 V 14 H 18 V 16 H 16 V 14 H 18 V 12 H 20 V 10 Z M 14,18 H 18 V 20 H 14 Z"/>
 <path style="opacity:0.2" d="M 14,3 V 7 H 8 v 2 h 2 v 2 H 8 v 2 h 4 v -2 h 2 4 2 v 2 h 2 v 2 h 2 V 11 H 22 V 9 h 2 V 7 H 22 20 V 5 H 18 V 3 Z"/>
 <path style="fill:#fecd38" d="M 14,2 V 6 H 8 V 8 H 10 V 10 H 8 V 12 H 12 V 10 H 20 V 12 H 22 V 14 H 24 V 10 H 22 V 8 H 24 V 6 H 20 V 4 H 18 V 2 Z"/>
 <path style="fill:#f48fb1" d="m 16,22 v 2 h 2 v -2 z m 0,2 h -2 v 6 h 2 2 v -4 h -2 z"/>
 <path style="opacity:0.2;fill:#ffffff" d="M 4,2 C 2.892,2 2,2.892 2,4 V 5 C 2,3.892 2.892,3 4,3 h 24 c 1.108,0 2,0.892 2,2 V 4 C 30,2.892 29.108,2 28,2 Z"/>
</svg>
